X: 36666
T: Shaskeen, The
R: jig
M: 6/8
K: Dmajor
f^ef =edB|BAF F^EF|EDB DF/G/A|BAF Ade|
{e}~f3 edB|BAF F^EF|EDB DFA|B/c/dc d2:|
f2 f afe|dcd B2 F|AFE DFA|BAF E2 A|
f/e/dB AF/G/A|DFA B2 A|Ade f/g/af|ecA d2:|

